X:1
T:Sechs geistliche Gesänge für Sopran, Alt, Tenor und Bass
T:Abendlied
T:Moritz Hauptmann
T:Abendlied
T:Op. 33, No. 6
T:CPDL   —   Creative Commons Attribution Non Commercial 3.0
T:CPDL   —   Creative Commons Attribution Non Commercial 3.0
T:CPDL   —   Creative Commons Attribution Non Commercial 3.0
C:Moritz Hauptmann
Z:CPDL   —   Creative Commons Attribution Non Commercial 3.0
%%score [ ( 1 2 ) 3 4 ]
L:1/8
Q:1/4=66
M:2/4
K:F
V:1 treble nm="Sopran\nAlt"
V:2 treble 
V:3 treble-8 nm="Tenor"
V:4 bass nm="Bass"
V:1
!mf!"^Langsam" F |!<(! A2 F!<)!A |!>(! c2!>)! B2 |!p! dd cB | A>G F z |!f! f2 c>B | %6
w: 1.  Die|Nacht ist ge-|kom- men,|drin wir ru- hen|sol- * len;|Gott walt´s zu|
w: 2.  Treib|fern ab von|uns, Herr,|all' un- rei- nen|Geis- * ter;|halt die Nacht-|
w: 3.  Lass|uns nun ein-|schla- fen|mit gu- ten Ge-|dan- * ken,|fröh- lich auf-|
!>(! BA!>)! z!mf! c |!<(! F2!<)! GG |!>(! A2!>)! E z |!p! F2 FF | G2 A z |!<(! AA c!<)!c | %12
w: From- men nach|sei- nem Ge-|fal- len,|dass wir uns|le- gen|in sein'n Schutz und|
w: wa- che du|selbst, un- ser|Meis- ter;|nimm Leib und|See- le|un- ter dei- ne|
w: wa- chen, von|dir nim- mer|wan- ken;|lass uns in|Züch- ten|dei- nen Preis zu *1|
!f! d2!>(! c!>)!B |!p! A"^dolce"c F2- | FB AG | (F2 G2) | A!mf!A c2- | %17
w: Se- gen, der|Ruh', der Ruh',|_ der Ruh' zu|pfle- *|gen, der Ruh'|
w: Flü- gel, send|uns, send uns,|_ send uns dein'|En- *|gel, send uns|
w: rich- ten, all'|Tun, all' Tun,|_ all' Tun und|Dich- *|ten, all' Tun|
 c[Q:1/4=60]"^ritard." B/A/!<(! G^G!<)! | A !fermata!z/!p![Q:1/4=66]"^a tempo""^dolce" F/ B!p!G | %19
w: _ zu _ pfle- *|gen, der Ruh' zu|
w: _ dein' _ En- *|gel, send uns dein|
w: _ und _ Dich- *|ten, all' Tun und|
"^∗"!<(! (FE/!<)!F/ G>!>(!E)!>)! | F2 z2 |] %21
w: pfle- * * * *|gen.|
w: En- * * * *|gel!|
w: Dich- * * * *|ten.|
V:2
 F | F2 FF | F2 F2 | FF GE | C>E F x | F2 G>G | GF x F | D2 EE | E2 E x | D2 DD | E2 F x | FF GG | %12
w: ||||||||||||
w: ||||||||||||
w: ||||||||||||
 B2 GC | C z z _E | D3 D | C4 | CF A2- | A G/F/ E2 | E z z D | CC C2 | C2 x2 |] %21
w: |* der|Ruh', *||||* der|Ruh' zu pfle-|gen.|
w: |* send|uns, *||||* send|uns dein' En-|gel!|
w: |* all'|Tun, *||||* all'|Tun und Dich-|ten.|
V:3
!mf! A |!<(! c2 A!<)!c |!>(! _e2!>)! d2 |!p! BB Gc | c>B A z |!f! c2 c>c |!>(! cc!>)! z!mf! c | %7
w: 1.  Die|Nacht ist ge-|kom- men,|drin wir ru- hen|sol- * len;|Gott walt´s zu|From- men nach|
w: 2.  Treib|fern ab von|uns, Herr,|all' un- rei- nen|Geis- * ter;|halt die Nacht-|wa- che du|
w: 3.  Lass|uns nun ein-|schla- fen|mit gu- ten Ge-|dan- * ken,|fröh- lich auf-|wa- chen, von|
!<(! A f!<)! ed |!>(! d^c/=B/!>)! c z |!p! A2 AA | =c2 c z |!<(! dd e!<)!e |!f! f2!>(! e!>)!g | %13
w: sei- nem _ Ge-|fal- * * len,|dass wir uns|le- gen|in sein'n Schutz und|Se- gen, der|
w: selbst, un- * ser|Meis- * * ter;|nimm Leib und|See- le|un- ter dei- ne|Flü- gel, send|
w: dir nim- * mer|wan- * * ken;|lass uns in|Züch- ten|dei- nen Preis zu *1|rich- ten, all'|
!p! c z z"^dolce" c | Fd cB | (A2 E2) | F z z!mf! A | dd!<(! d>e!<)! | %18
w: Ruh', der|Ruh', der Ruh' zu|pfle- *|gen, der|Ruh' zu pfle- *|
w: uns, send|uns, send uns dein'|En- *|gel, send|uns dein' En- *|
w: Tun, all'|Tun, all' Tun und|Dich- *|ten, all'|Tun und Dich- *|
 ^c !fermata!z/!p!"^dolce" A/ dB |!<(! (AG/!<)!A/ B>!>(!G)!>)! | A2 z2 |] %21
w: gen, der Ruh' zu|pfle- * * * *|gen.|
w: gel, send uns dein'|En- * * * *|gel!|
w: ten, all' Tun und|Dich- * * * *|ten.|
V:4
!mf! F, |!<(! F,2 F,!<)!F, |!>(! F,2!>)! F,2 |!p! F,F, E,C, | F,2 F,, z |!f! A,2 E,>E, | %6
!>(! F,F,!>)! z!mf! A,, |!<(! D,2!<)! C,B,, |!>(! A,,2!>)! A,, z |!p! D,2 D,D, | C,2 F, z | %11
!<(! D,D, C,!<)!C, |!f! B,,2!>(! C,!>)! D,/E,/ |!p! F, z z"^dolce" A,, | B,,G,, A,,B,, | C,4 | %16
 F,, z z!mf! F, | B,B,!<(! B,2!<)! | A, !fermata!z/!p!"^dolce" D,/ G,,B,, |!<(! C,4!<)! | %20
!>(! F,,2!>)! z2 |] %21

